X:1
T:No.63 Kiss The Maid Behind The Bier
C:jig
M:6/8
L:1/8
K:G
AcA AGE|cBc dcd|ege edB|
gfg a2b|age c2e|dBG GAB|
c2e dcB|[1A3E3:|[2A3 A3||
aba aef|gag gef|aba aef|
g3efg|age c2e|dBG GAB|
c2e dcB|[1A3A2^g:|[2A3A3||
